!!!!SEGMENT: pl-wn--mus-iii-72-051_zelenski-wladyslaw--piesni-gabryelli-op-25-podarunek.krn
!!!cenid: 18xx:3701
!!!COM: Żeleński, Władysław
!!!COM-rismID:
!!!CDT:
!!!CNT:
!!!OTL: Pieśni Gabryelli op. 25/Podarunek
!!!PDT:
!!!AGN:
!!!SMS-siglum: PL-Wn
!!!SMS-shelfmark: Mus.III.72.051
!!!SMS-shelfwork: W
!!!SMS-variant:
!!!SMS-altvar:
!!!NIFC-rismSourceID:
!!!NIFC-islandoraID:
!!!URL-pdf-islandora:
!!!URL-scan: https://polona.pl/item/piesni-gabryelli-i-e-narcyzy-zmichowskiej-op-25-no-2-podarunek,NzA3ODM3NTI/1/#info:metadata @EN{Scan on Polona} @PL{Skany w portalu Polona}
!!!ONB-nifc:
!!!OMD: Andantino.
!!!AIN: 1 piano 1 vox
!!!key: B-
**kern	**kern	**fing	**dynam	**kern	**text	**text	**dynam
*part2	*part2	*part2	*part2	*part1	*part1	*part1	*part1
*staff3	*staff2	*staff2	*	*staff1	*staff1	*staff1	*
*I"Fortepian.	*I"Fortepian.	*	*	*I"Śpiew.	*	*	*
*Ipiano	*Ipiano	*	*	*Ivox	*	*	*
*ICklav	*ICklav	*	*	*ICvox	*	*	*
*clefF4	*clefG2	*	*	*clefG2	*	*	*
*k[b-e-]	*k[b-e-]	*	*	*k[b-e-]	*	*	*
*B-:	*B-:	*	*	*B-:	*	*	*
*M3/4	*M3/4	*	*	*M3/4	*	*	*
*>[A,B,B,C]	*>[A,B,B,C]	*	*	*>[A,B,B,C]	*	*	*
=1	=1	=1	=1	=1	=1	=1	=1
*>A	*>A	*	*	*>A	*	*	*
*^	*	*	*	*	*	*	*
!LO:N:vis=2.	!	!	!	!	!	!	!	!
!LO:TX:b:i:t=legato	!	!	!	!	!	!	!	!
4BB-/	[2.BB-\	4r	.	p	2.r	.	.	.
!	!	!LO:TX:b:i:t=semplice	!	!	!	!	!	!
4B-/	.	8r	.	.	.	.	.	.
.	.	(8f\L 8ff	.	.	.	.	.	.
[4A-X/	.	8g-X\ 8gg-X	.	.	.	.	.	.
.	.	8f\J 8ff	.	.	.	.	.	.
=2	=2	=2	=2	=2	=2	=2	=2	=2
*	*	*^	*	*	*	*	*	*
4A-/]	2.BB-\]	8.en/L) 8.een	4ryy	.	.	2.r	.	.	.
.	.	(>16b-/Jk	.	.	.	.	.	.	.
*	*	*	*	*below	*	*	*	*	*
4G/	.	[2dd-X/)	(4d-X\	1	.	.	.	.	.
4G-X/	.	.	4e-X\	2	.	.	.	.	.
*	*	*v	*v	*	*	*	*	*	*
=3	=3	=3	=3	=3	=3	=3	=3	=3
4F/	[2.BB-\	4f/) 4dd-]	1	.	2.r	.	.	.
4G-X/	.	8r	.	.	.	.	.	.
.	.	(8d-X/L 8dd-X	.	.	.	.	.	.
[4F/	.	8e-/ 8ee-	.	.	.	.	.	.
.	.	8d-/J 8dd-	.	.	.	.	.	.
=4	=4	=4	=4	=4	=4	=4	=4	=4
*	*	*^	*	*	*	*	*	*
4.F/]	2.BB-\]	8.c/L) 8.cc	4ryy	.	.	2.r	.	.	.
.	.	(>16g/Jk	.	.	.	.	.	.	.
.	.	[2b-/)	(4B-\	1	.	.	.	.	.
8F/L	.	.	.	.	.	.	.	.	.
8En/	.	.	4c\	1	.	.	.	.	.
8E-X/J	.	.	.	.	.	.	.	.	.
*	*	*v	*v	*	*	*	*	*	*
=5	=5	=5	=5	=5	=5	=5	=5	=5
4D/	[2.BB-\	4f/) 4b-]	.	.	2.r	.	.	.
2D-X/	.	8r	.	.	.	.	.	.
!	!	!	!	!LO:HP:a	!	!	!	!
.	.	(8B-/L 8b-	.	<	.	.	.	.
.	.	8c/ 8cc	.	.	.	.	.	.
.	.	8B-/J 8b-	.	.	.	.	.	.
!!LO:LB:g=original
=6	=6	=6	=6	=6	=6	=6	=6	=6
*	*	*^	*	*	*	*	*	*
[2.C/	2BB-\]	8.A/L) 8.a	2ryy	.	.	2.r	.	.	.
.	.	(16e-/Jk	.	.	.	.	.	.	.
.	.	(2G-X/) 2g-X	.	.	.	.	.	.	.
.	4BB-\	.	[4c\ [4e-	.	.	.	.	.	.
*	*	*v	*v	*	*	*	*	*	*
!LO:TX:b:t=[segno]	!	!LO:TX:a:t=[segno]	!	!	!LO:TX:a:t=[segno]	!	!	!
=7||	=7||	=7||	=7||	=7||	=7||	=7||	=7||	=7||
*>B	*>B	*>B	*	*	*>B	*	*	*
8C/]	8AA\	8A/) 8c] 8e-] 8f	.	[	2.r	.	.	.
8r	8ryy	16.r	.	.	.	.	.	.
.	.	(32ccc\	.	p	.	.	.	.
4r	2ryy	[<4cc\)	.	.	.	.	.	.
(4B-\ 4g-X	.	4cc\_< [<4ee- 4gg-X	.	>	.	.	.	.
*v	*v	*	*	*	*	*	*	*
=8	=8	=8	=8	=8	=8	=8	=8
8A\) 8f	8cc\] 8ee-] 8ff	.	]	2.r	.	.	.
8r	16.r	.	.	.	.	.	.
.	(<32cc\	.	.	.	.	.	.
4r	[<4c/)	.	.	.	.	.	.
(4BB-\ 4G-X	4c/_< [<4e- 4g-X	.	>]	.	.	.	.
=9	=9	=9	=9	=9	=9	=9	=9
8AA/) 8F	8c/] 8e-] 8f	.	.	2.r	.	.	.
8r	16.r	.	.	.	.	.	.
.	(32cc\	.	.	.	.	.	.
8..r	[2e-/)	.	.	.	.	.	.
(32c\KKL	.	.	.	.	.	.	.
8..G-X\)	.	.	.	.	.	.	.
32F\Jkk	.	.	.	.	.	.	.
=10	=10	=10	=10	=10	=10	=10	=10
2F\	2e-/]	.	.	2.r	.	.	.
4AA/	4F/ 4c 4e-	.	.	.	.	.	.
=11	=11	=11	=11	=11	=11	=11	=11
!LO:TX:b:i:t=con Pedale	!	!	!	!	!	!	!
4BB-/	4F/ 4B- 4d	.	.	2.r	.	.	.
2BB-/	2F:/ 2B-: 2d: 2f:	.	.	.	.	.	.
!!LO:LB:g=original
=12	=12	=12	=12	=12	=12	=12	=12
4BB-/	4F/ 4B- 4d	.	.	2.r	.	.	.
2BB-/	2F:/ 2B-: 2d: 2f:	.	.	.	.	.	.
=13	=13	=13	=13	=13	=13	=13	=13
!	!	!	!	!	!	!	!LO:DY:a:rj
4BB-/	4F/ 4B- 4d	.	.	4.f/	Za-	Łzę	p
2BB-/	2F:/ 2B-: 2d: 2f:	.	.	.	.	.	.
.	.	.	.	8en/	-pła-	mi	.
.	.	.	.	8g/	-ka-	da-	.
.	.	.	.	8f/	-ła	-ła	.
=14	=14	=14	=14	=14	=14	=14	=14
4AA-X/	4F/ 4B- 4d	.	.	4.b-\	prze-	prze-	.
2AA-/	2F:/ 2B-: 2d: 2f:	.	.	.	.	.	.
.	.	.	.	8a/	-że-	-że-	.
.	.	.	.	8cc\	-gna-	-gna-	.
.	.	.	.	8b-\	-ła	-ła	.
=15	=15	=15	=15	=15	=15	=15	=15
!	!	!	!	!LO:TX:a:i:t=espress.	!	!	!
4GG/	4G/ 4B- 4e-	.	.	4.ee-\	Pier-	Pier-	.
2GG/	2B-:/ 2e-: 2b-:	.	.	.	.	.	.
.	.	.	.	8dd\	-ścio-	-ścio-	.
.	.	.	.	8cc\	-ne-	-ne-	.
.	.	.	.	8b-\	-czek	-czek	.
=16	=16	=16	=16	=16	=16	=16	=16
8C/	8B-/ 8en	.	.	8.a/	da-	da-	.
8r	16.r	.	.	.	.	.	.
.	.	.	.	16g/	-ła	-ła-	.
.	(32b-\	.	.	.	.	.	.
4r	4c/	.	.	4g/	swój,	-swój,	.
(<4C/	4B-/ 4e 4g	.	.	4r	.	.	.
!!LO:PB:g=original
=17	=17	=17	=17	=17	=17	=17	=17
!	!	!	!	!	!	!	!LO:HP:a
4D\)	4A/) 4d 4f	.	.	4.f/	Jam	W_po-	<
2D\	2A:/ 2d: 2f: 2a:	.	.	.	.	.	.
.	.	.	.	8en/	go	-dróż	.
.	.	.	.	8g/	scho-	ca-	.
.	.	.	.	8f/	-wał,	-łą	.
=18	=18	=18	=18	=18	=18	=18	=18
4GG/	4A/ 4c 4e- 4f#X	.	<	4.cc\	u-	to	.
2GG/	2B-:/ 2d: 2b-:	.	[[	.	.	.	.
.	.	.	.	8b-\	-ca-	zbyt	.
.	.	.	.	8dd\	-ło-	ma-	.
.	.	.	.	8b-\	-wał,	-ło	[
=19	=19	=19	=19	=19	=19	=19	=19
!	!	!	!	!	!	!	!LO:HP:a
2.C/	4r	.	>	8.a/	I	Ja	>
.	.	.	.	16g/	ru-	chcę	.
.	4c/ 4en 4b-	.	.	4.a/	-szy-	wię-	.
.	4B-/ 4c 4e	.	]]	.	.	.	.
.	.	.	.	8g/	-łem	-céj	]]
!!LO:LB:g=original
=20	=20	=20	=20	=20	=20	=20	=20
2.FF/	8A/ 8c 8f	.	.	2f/	w_świat.	mieć.	.
.	16.r	.	.	.	.	.	.
.	(32cc\	.	<	.	.	.	.
.	4f/	.	.	.	.	.	.
.	4c/) 4e- 4a-X	.	[[	4r	.	.	.
=21	=21	=21	=21	=21	=21	=21	=21
!	!	!	!	!LO:TX:a:i:t=un poco stringendo	!	!	!LO:DY:a:rj
2F\	4r	.	p	8.g/	Jak	Tak	p
.	.	.	.	16a/	ru-	mó-	.
.	4Bn/ 4d 4g	.	.	8bn\	-szy-	-wi-	.
.	.	.	.	8cc\	-łem	-łem	.
4FF/	4G/ 4B 4d	.	.	8dd\	nie	i	.
.	.	.	.	8a-X/	tę-	pę-	.
=22	=22	=22	=22	=22	=22	=22	=22
*	*^	*	*	*	*	*	*
4EE-/	8..r	4ryy	.	.	2g/	-schni-	-dzi-	.
.	(32cc\	.	.	.	.	.	.	.
4E-\ 4G	4.a-X/	4c\	.	.	.	.	.	.
4E-\ 4G	.	4c\	.	.	4g/	-łem	-łem	.
.	8g/)	.	.	.	.	.	.	.
*	*v	*v	*	*	*	*	*	*
!!LO:LB:g=original
=23	=23	=23	=23	=23	=23	=23	=23
2.DD/	4r	.	.	8g/	Bo	Co-	.
.	.	.	.	8a/	świat	-raz	.
.	4Bn/ 4f 4g	.	.	8bn\	ta-	da-	.
.	.	.	.	8cc\	-kim	-léj,	.
.	4G/ 4B 4f	.	.	8dd\	pię-	da-	.
.	.	.	.	8g/	-knym	-léj	.
=24	=24	=24	=24	=24	=24	=24	=24
*	*^	*	*	*	*	*	*
8CC/	8G/ 8c 8e-	4ryy	.	.	2.ee-\	był	w_świat	.
8r	16.r	.	.	.	.	.	.	.
.	32ee-\	.	.	.	.	.	.	.
[2c\	(4g/	[2e-\	.	.	.	.	.	.
.	4a/	.	.	.	.	.	.	.
=25	=25	=25	=25	=25	=25	=25	=25	=25
8c\]	8e-/]) 8b-	4ryy	.	.	4.b-\	Cud	Aż	.
8r	8r	.	.	.	.	.	.	.
!	!	!	!	!LO:HP:t=crescendo poco a poco	!	!	!	!
4G-X\	2c/ [>2b-	4en\	.	<	.	.	.	.
!	!	!	!	!	!	!	!	!LO:HP:t=crescendo poco a poco
.	.	.	.	.	8a/	przy	bez	<
4F\	.	4f\	.	.	8cc\	cu-	si-	.
.	.	.	.	.	8b-\	-dzie	-ły	.
!!LO:LB:g=original
=26	=26	=26	=26	=26	=26	=26	=26	=26
4En\	8c/ 8g 8b-]	4ryy	.	.	4.cc\	kwia-	u	.
.	8r	.	.	.	.	.	.	.
4E-X\	4c/ 4cc	[2f#X\ [2a	.	.	.	.	.	.
.	.	.	.	.	8bn\	-ty	mo-	.
4D\	4d/ 4dd	.	.	.	8dd\	lu-	-gi-	.
.	.	.	.	.	8cc\	-dzie	-ły	.
=27	=27	=27	=27	=27	=27	=27	=27	=27
4C/	8e-/L 8ee-	4f#\] 4a]	.	.	8ee-\	Mło-	Za-	.
.	8d/J 8dd	.	.	.	8dd\	-do-	-trzy-	.
16r	4.ff/	[<4fn\ 4g#X	.	.	4.ff\	-cia-	-ma-	.
(16BBn\LL	.	.	.	.	.	.	.	.
16G#X\	.	.	.	.	.	.	.	.
16d\JJ	.	.	.	.	.	.	.	.
16e-\LL)	.	4f\_ [<4a	.	.	.	.	.	.
(16C\	.	.	.	.	.	.	.	.
16F\	8ee-/	.	.	.	8ee-\	-ne	-łem	.
16A\JJ	.	.	.	.	.	.	.	.
=28	=28	=28	=28	=28	=28	=28	=28	=28
8e-\)	8f/] 8a] 8cc	2ryy	.	.	8cc\	dni.	się.	.
8r	16.r	.	.	.	8r	.	.	.
.	(>32cc\	.	.	.	.	.	.	.
!	!	!	!	!	!	!	!	!LO:HP:a
4r	[2f/)	.	.	.	[2ff;\	Och!	Och!	<
4AA/	.	4F;>\ 4c 4e-	.	.	.	.	.	[[
*	*v	*v	*	*	*	*	*	*
!!LO:PB:g=original
=29	=29	=29	=29	=29	=29	=29	=29
4BB-/	4F/ 4B- 4d-X 4f]	.	.	8.ff\]	.	Pa-	.
.	.	.	.	16ff\	zry-	-trzę	.
4BB-/	4F:/ 4B-: 4d-: 4f:	.	.	4dd-X\	-wa-	w_ko-	.
4BB-/	4F:/ 4B-: 4d-: 4f:	.	.	4ff\	-łem,	-ło	.
=30	=30	=30	=30	=30	=30	=30	=30
4AA-X/	4F:/ 4c: 4f:	.	.	8.cc\	och!	schy-	.
.	.	.	.	16cc\	ko-	-lam	.
4FF/	4A-X:/ 4c: 4f:	.	.	4a-X/	-cha-	czo-	.
4AA-/	4F:/ 4c: 4f:	.	.	4cc\	-łem,	-ło,	.
=31	=31	=31	=31	=31	=31	=31	=31
4GG/	4B-/ 4en	.	.	8.dd-X\	I	szu-	.
.	.	.	.	16dd-\	mó-	-kam	.
4GG/	4B-:/ 4e: 4b-:	.	.	4b-\	-wi-	kwia-	.
4GG/	4B-/ 4e	.	.	4dd-\	-łem	-tów	.
=32	=32	=32	=32	=32	=32	=32	=32
4AA-X/	4c/ 4f	.	.	8.cc\	so-	zwię-	.
.	.	.	.	16a-X/	-bie	-dły	.
4AA-/	4c/ 4f 4cc	.	.	2f/	tak,	już,	.
4FF/	4c/ 4f 4a-X	.	.	.	.	.	.
!!LO:LB:g=original
=33	=33	=33	=33	=33	=33	=33	=33
2.EEn/	4r	.	.	8.g/	Tu	Szu-	.
.	.	.	.	16a-X/	co	-kam	.
.	4d-X/ 4g	.	.	8b-\	chwi-	lu-	.
.	.	.	.	8dd-X\	-la	-dzi	.
.	4d-/ 4g 4b-	.	.	8cc\	szczę-	wzrok	.
.	.	.	.	8b-\	-ścia	się	.
=34	=34	=34	=34	=34	=34	=34	=34
4FF/	8..r	.	.	2a-X/	ty-	tru-	.
.	32aa-X\	.	.	.	.	.	.
4F\ 4A-X 4d-X	[4a-X/	.	.	.	.	.	.
4A-\ 4d- 4f	4a-/] 4dd-X	.	.	4dd-X\	-le,	-dzi,	.
=35	=35	=35	=35	=35	=35	=35	=35
!	!	!	!	!	!	!	!LO:HP:a
2.EE-X/	4r	.	<	8.b-\	Tu	Szu-	<
.	.	.	.	16cc\	co	-kam	.
.	4d-X/ 4g 4b-	.	.	8dd-X\	chwi-	lu-	.
.	.	.	.	8ff\	-la	-dzi	.
.	4d-/ 4g 4b- 4dd-X	.	[[	8ee-\	szczę-	wzrok	.
.	.	.	.	8dd-\	-ścia	się	[
=36	=36	=36	=36	=36	=36	=36	=36
*	*	*	*	*^	*	*	*
!	!	!	!	!	!LO:N:cue	!	!	!LO:HP:a
4FF/	8..r	.	.	2aa-X/	2dd-X\	ty-	tru-	>
.	32ddd-X\	.	>	.	.	.	.	.
4F\ 4A-X 4d-X	[4dd-X\	.	.	.	.	.	.	.
!	!	!	!	!	!LO:N:cue	!	!	!
4d-\ 4f	4an\ 4dd-_	.	]]	4cc-X/	4an\	-le,	-dzi,	]]
*	*	*	*	*v	*v	*	*	*
!!LO:LB:g=original
=37	=37	=37	=37	=37	=37	=37	=37
!	!	!	!	!	!	!	!LO:DY:a
2GG-X/	4b-\ 4dd-]	.	.	8b-\	Skar-	Nie	p
.	.	.	.	8b-\	-bów	zo-	.
.	4d-X/ 4g-X 4b-	.	.	4dd-X\	ty-	-sta-	.
4BB-/	4d-/ 4g- 4dd-X	.	.	4g-X/	-le,	-ło	.
=38	=38	=38	=38	=38	=38	=38	=38
4AA-X/	8..r	.	.	2.f/	mam,	nie,	.
.	(32ccc\	.	.	.	.	.	.
4A-X\ 4c	[<4cc\)	.	.	.	.	.	.
4A-\ 4c 4f	4cc\] 4ff	.	.	.	.	.	.
=39	=39	=39	=39	=39	=39	=39	=39
!	!	!	!	!	!	!	!LO:HP:a
2GG/	4r	.	.	8en/	Skar-	Nie	<
.	.	.	.	8e/	-bów	zo-	.
.	4B-/ 4en	.	.	4.b-\	ty-	-sta-	.
(<4GG-X/	(4B-/ 4e 4b-	.	.	.	.	.	.
.	.	.	.	8a/	-le,	-ło	[[
=40	=40	=40	=40	=40	=40	=40	=40
!	!	!	!	!	!	!	!LO:HP:a
8FF/)	8c/) 8f 8a	.	.	4a/	mam.	nie,	>]
8r	16.r	.	.	.	.	.	.
.	(32ccc\	.	.	.	.	.	.
4r	[<4cc\)	.	.	4r	.	.	.
(4B-^\ 4g-X	4cc\_< [<4ee- 4gg-X	.	.	4r	.	.	.
!!LO:LB:g=original
=41	=41	=41	=41	=41	=41	=41	=41
8A\) 8f	8cc\] 8ee-] 8ff	.	.	2.r	.	.	.
8r	16.r	.	.	.	.	.	.
.	(>32cc\	.	.	.	.	.	.
4r	[<4c/)	.	.	.	.	.	.
(4BB-^\ 4G-X	4c/_< [<4e- 4g-X	.	.	.	.	.	.
=42	=42	=42	=42	=42	=42	=42	=42
8AA/) 8F	8c/] 8e-] 8f	.	.	2.r	.	.	.
8r	16.r	.	.	.	.	.	.
.	(32cc\	.	.	.	.	.	.
8..r	[2e-/)	.	.	.	.	.	.
(32c\KKL	.	.	.	.	.	.	.
8..G-X\)	.	.	.	.	.	.	.
32F\Jkk	.	.	.	.	.	.	.
=43	=43	=43	=43	=43	=43	=43	=43
2F\	2e-/]	.	.	2.r	.	.	.
4AA/	4F/ 4c 4e-	.	.	.	.	.	.
=44	=44	=44	=44	=44	=44	=44	=44
!	!	!	!	!LO:TX:a:i:t=dolce	!	!	!
2.BB-/	8F/L 8B- 8d	.	pp	4.f/	Kwia-	Tyl-	.
.	8F/	.	.	.	.	.	.
.	8B-/	.	.	.	.	.	.
.	8f/	.	.	8en/	-tów	-ko	.
.	8d/	.	.	8g/	wo-	z_wra-	.
.	8B-/J	.	.	8f/	-nie,	-żeń	.
!!LO:PB:g=original
=45	=45	=45	=45	=45	=45	=45	=45
2.AA-X/	8r	.	.	4.b-\	bra-	i	.
.	8F/L	.	.	.	.	.	.
.	8B-/	.	.	.	.	.	.
.	8f/	.	.	8a/	-tnie	wy-	.
.	8d/	.	.	8cc\	dło-	-da-	.
.	8B-/J	.	.	8b-\	-nie	-rzeń	.
=46	=46	=46	=46	=46	=46	=46	=46
2.GG/	8r	.	.	4.ee-\	Zew-	Pa-	.
.	8B-/L	.	.	.	.	.	.
.	8e-/	.	.	.	.	.	.
.	8b-/	.	.	8dd\	-sząd	-mięć	.
.	8g/	.	.	8cc\	do	tyl-	.
.	8e-/J	.	.	8b-\	mnie	-ko	.
=47	=47	=47	=47	=47	=47	=47	=47
2.C/	8r	.	.	8.a/	gar-	mam	.
.	8B-/L	.	.	.	.	.	.
.	.	.	.	16g/	-ną	jéj	.
.	8en/	.	.	4g/	się.	łzy.	.
.	8g/	.	.	.	.	.	.
.	8e/	.	.	4r	.	.	.
.	8B-/J	.	.	.	.	.	.
=48	=48	=48	=48	=48	=48	=48	=48
!	!	!	!	!LO:TX:a:i:t=con gran espressione	!	!	!
2FF/ 2F	8r	.	.	4.f/	A	Ach!	.
.	8A/L	.	.	.	.	.	.
.	8c/	.	.	.	.	.	.
.	8f/	.	.	8f/	tam	i	.
4EE-/ 4E-	8c/	.	.	8a/	o-	zo-	.
.	8A/J	.	.	8cc\	-na	-stał	.
!!LO:LB:g=original
=49	=49	=49	=49	=49	=49	=49	=49
2.DD/ 2.D	8r	.	.	4.dd\	za-	ten	.
.	8F/L	.	.	.	.	.	.
.	8B-/	.	.	.	.	.	.
.	8f/	.	.	8b-\	-smu-	com	.
.	8d/	.	.	8a/	-co-	do-	.
.	8B-/J	.	.	8g/	-na,	-stał,	.
=50	=50	=50	=50	=50	=50	=50	=50
2.EE-/ 2.E-	8r	.	.	8f/	Da-	Pier-	.
.	8F/L	.	.	8f/	-ła	-ścio-	.
.	8A/	.	.	4a/	tyl-	-ne-	.
.	8f/	.	.	.	.	.	.
.	8c/	.	.	4cc\	-ko	-czek	.
.	8A/J	.	.	.	.	.	.
=51	=51	=51	=51	=51	=51	=51	=51
2.DD/ 2.D	8r	.	.	2.ff\	łzę,	jéj,	.
.	8F/L	.	.	.	.	.	.
.	8B-/	.	.	.	.	.	.
.	8f/	.	.	.	.	.	.
.	8d/	.	.	.	.	.	.
.	8B-/J	.	.	.	.	.	.
=52	=52	=52	=52	=52	=52	=52	=52
*	*	*	*	*^	*	*	*
!	!	!	!	!	!	!	!	!LO:HP:a
2.AA-X\ 2.A-X	8r	.	.	4.b-\	4.ryy	A	Ach!	<
.	8B-/L	.	<	.	.	.	.	.
.	8d/	.	.	.	.	.	.	.
!	!	!	!	!	!LO:N:cue	!	!	!
.	8b-/	.	.	8b-\	8dd/	tam	i	.
!	!	!	!	!	!LO:N:cue	!	!	!
.	8f/	.	.	8dd\	8gg/	o-	zo-	.
!	!	!	!	!	!LO:N:cue	!	!	!
.	8d/J	.	.	8ff\	8ff/	-na	-stał	.
*	*	*	*	*v	*v	*	*	*
!!LO:LB:g=original
=53	=53	=53	=53	=53	=53	=53	=53
2.GG/ 2.G	8r	.	.	4.ff\	za-	ten	.
.	8B-/L	.	.	.	.	.	.
.	8e-/	.	.	.	.	.	.
.	8b-/	.	.	8ee-\	-smu-	com	.
.	8g/	.	.	8b-\	-co-	do-	.
.	8e-/J	.	.	8cc\	-na,	-stał,	.
=54	=54	=54	=54	=54	=54	=54	=54
4FF/ 4F	8r	.	.	4.dd\	Da-	Pier-	.
.	8B-/L	.	>	.	.	.	.
4r	8d/	.	.	.	.	.	.
!	!	!	!	!	!	!	!LO:HP:a
.	8b-/	.	.	8b-\	-ła	-ścio-	>
4r	8a-X/	.	.	8ff\	tyl-	-ne-	.
.	8g/J	.	.	8een\	-ko	-czek	.
=55	=55	=55	=55	=55	=55	=55	=55
*ped	*	*	*	*	*	*	*
8r	[2.g-X/	.	.	[2.ee-X\	łzę,	jéj,	.
8CC/L	.	.	.	.	.	.	.
8BB-/	.	.	.	.	.	.	.
8E-/	.	.	.	.	.	.	.
8G-X/	.	.	.	.	.	.	.
8B-/J	.	.	.	.	.	.	.
=56	=56	=56	=56	=56	=56	=56	=56
*	*^	*	*	*	*	*	*
*Xped	*	*	*	*	*	*	*	*
8e-\	8g-/]	4ryy	.	]	8ee-\]	.	.	]
8r	8r	.	.	.	8r	.	.	.
!	!	!	!	!	!	!	!	!LO:DY:a
4F\	(4.dd/	2e-\ 2a	.	pp	4.dd\	da-	zo-	pp
4FF/	.	.	.	.	.	.	.	.
.	8cc/	.	.	.	8cc\	-ła	-stał	.
*	*v	*v	*	*	*	*	*	*
=57	=57	=57	=57	=57	=57	=57	=57
*^	*	*	*	*	*	*	*
!LO:N:vis=2	!	!	!	!	!	!	!	!
4BB-/	[2.BB-\	4d/) 4b-	.	.	2b-\	łzę.	jéj.	.
4B-/	.	8r	.	.	.	.	.	.
!	!	!LO:TX:b:i:t=espress.	!	!	!	!	!	!
.	.	(8en/L 8een	.	.	.	.	.	.
[4A-X/	.	8g/ 8gg	.	.	4r	.	.	.
.	.	8f/J 8ff	.	.	.	.	.	.
!!LO:LB:g=original
=58	=58	=58	=58	=58	=58	=58	=58	=58
*	*	*^	*	*	*	*	*	*
4A-/]	2.BB-\]	8.en/L) 8.een	4ryy	.	.	2.r	.	.	.
.	.	16b-/Jk	.	.	.	.	.	.	.
4G/	.	[2dd-X/	(4d-X\	.	.	.	.	.	.
4G-X/	.	.	4e\	.	.	.	.	.	.
*	*	*v	*v	*	*	*	*	*	*
=59	=59	=59	=59	=59	=59	=59	=59	=59
4F/	[2.BB-\	4f/) 4dd-]	.	.	2.r	.	.	.
4G-X/	.	8r	.	.	.	.	.	.
.	.	(8d-X/L 8dd-X	.	.	.	.	.	.
[4F/	.	8e-/ 8ee-	.	.	.	.	.	.
.	.	8d-/J 8dd-	.	.	.	.	.	.
=60	=60	=60	=60	=60	=60	=60	=60	=60
*	*	*^	*	*	*	*	*	*
4.F/]	2.BB-\]	8.c/L) 8.cc	4ryy	.	.	2.r	.	.	.
.	.	16g/Jk	.	.	.	.	.	.	.
.	.	[2b-/	(4B-\	.	.	.	.	.	.
8F/L	.	.	.	.	.	.	.	.	.
8En/	.	.	4c\	.	.	.	.	.	.
8E-X/J	.	.	.	.	.	.	.	.	.
*	*	*v	*v	*	*	*	*	*	*
=61	=61	=61	=61	=61	=61	=61	=61	=61
4D/	[2.BB-\	4f/) 4b-]	.	.	2.r	.	.	.
2D-X/	.	8r	.	.	.	.	.	.
.	.	(8B-/L 8b-	.	<	.	.	.	.
.	.	8c/ 8cc	.	.	.	.	.	.
.	.	8B-/J 8b-	.	.	.	.	.	.
=62	=62	=62	=62	=62	=62	=62	=62	=62
*	*	*^	*	*	*	*	*	*
[2.C/	2BB-\]	8.A/L) 8.a	4ryy	.	.	2.r	.	.	.
.	.	16e-/Jk	.	.	.	.	.	.	.
.	.	((2G-X/ 2g-X	4ryy	.	[	.	.	.	.
.	4BB-\	.	4c^>\ 4e-	.	.	.	.	.	.
*	*	*v	*v	*	*	*	*	*	*
!LO:TX:b:t=[segno]	!	!LO:TX:a:t=[segno]	!	!	!LO:TX:a:t=[segno]	!	!	!
=63||	=63||	=63||	=63||	=63||	=63||	=63||	=63||	=63||
*>C	*>C	*>C	*	*	*>C	*	*	*
2C/]	2AA\	2F/)) 2c 2e- 2f	.	.	2.r	.	.	.
4AA/	4AAA/	4F/ 4c 4e- 4f	.	pp	.	.	.	.
*v	*v	*	*	*	*	*	*	*
=64	=64	=64	=64	=64	=64	=64	=64
*	*^	*	*	*	*	*	*
2.BBB-\ 2.BB-	2.F<^/ 2.d 2.f	8.c\L	.	.	2.r	.	.	.
.	.	16B-\Jk	.	.	.	.	.	.
!	!LO:TX:a:i:t=ten.	!	!	!	!	!	!	!
.	.	2B-\	.	.	.	.	.	.
*	*v	*v	*	*	*	*	*	*
==	==	==	==	==	==	==	==
*-	*-	*-	*-	*-	*-	*-	*-
!!!system-decoration: s1{(s2,s3)}
!!!RDF**kern: < = below
!!!RDF**kern: > = above
!!!ENC: Andrzej Gręziak
!!!END: 2022-03-22
!!!ENC: Marta Chmielewska
!!!END: 2022-03-26
